modules/feathericon/icons/building.svg

<svg width="24" height="24" viewBox="0 0 24 24" xmlns="http://www.w3.org/2000/svg"><path d="M6 2h12a2 2 0 0 1 2 2v18H4V4a2 2 0 0 1 2-2zm0 18h4v-4h4v4h4V4H6v16zm7-14h3v3h-3V6zm-5 5h3v3H8v-3zm5 0h3v3h-3v-3zM8 6h3v3H8V6z" fill="#000" fill-rule="nonzero"/></svg>

<?xml version="1.0" encoding="UTF-8"?>
<svg width="24px" height="24px" viewBox="0 0 24 24" version="1.1" xmlns="http://www.w3.org/2000/svg" xmlns:xlink="http://www.w3.org/1999/xlink">
    <!-- Generator: sketchtool 52.2 (67145) - http://www.bohemiancoding.com/sketch -->
    <title>building</title>
    <desc>Created with sketchtool.</desc>
    <g id="web-app" stroke="none" stroke-width="1" fill="none" fill-rule="evenodd">
        <g id="building" fill="#000000" fill-rule="nonzero">
            <path d="M6,2 L18,2 C19.1045695,2 20,2.8954305 20,4 L20,22 L4,22 L4,4 C4,2.8954305 4.8954305,2 6,2 Z M6,20 L10,20 L10,16 L14,16 L14,20 L18,20 L18,4 L6,4 L6,20 Z M13,6 L16,6 L16,9 L13,9 L13,6 Z M8,11 L11,11 L11,14 L8,14 L8,11 Z M13,11 L16,11 L16,14 L13,14 L13,11 Z M8,6 L11,6 L11,9 L8,9 L8,6 Z" id="Shape"></path>
        </g>
    </g>
</svg>
